!!!COA:	Josquin des Prez
!!!CDT:	~1450-1521/08/27
!!!OTL@@LAT:	Alleluia. Laudate Dominum
!!!OTL2@@LAT:	Quoniam confirmata est
!!!AGN:	Motet
!!!SCT:	NJE 15.1
!!!SCA:	New Josquin Edition 15.1
!!!voices:	5?
!!!ONB: Altus is missing after m. 6
**kern	**kern	**kern	**kern
*staff4	*staff3	*staff2	*staff1
*>[A,B]	*>[A,B]	*>[A,B]	*>[A,B]
*>Part1[A]	*>Part1[A]	*>Part1[A]	*>Part1[A]
*>Part2[B]	*>Part2[B]	*>Part2[B]	*>Part2[B]
*Ivox	*Ivox	*Ivox	*Ivox
*I"Bassus	*I"Tenor	*I"Altus	*I"Superius
*I'B	*I'T	*I'A	*I'S
*>A	*>A	*>A	*>A
*clefF4	*clefGv2	*clefGv2	*clefG2
*k[]	*k[]	*k[]	*k[]
*M2/1	*M2/1	*M2/1	*M2/1
*met(C|)	*met(C|)	*met(C|)	*met(C|)
!!section: first part
=1-	=1-	=1-	=1-
0r	0c	1r	1cc
.	.	1c	1cc
=2	=2	=2	=2
0r	0c	1c	1cc
.	.	1c	1g
=3	=3	=3	=3
1C	0c	1G	2r
.	.	.	2.g/
1C	.	1r	.
.	.	.	4f/
.	.	.	[2e/
=4	=4	=4	=4
1C	[0G	1r	2e/]
.	.	.	4d/
.	.	.	4c/
1GG	.	2r	1B
.	.	[2d\	.
=5	=5	=5	=5
1r	0G]	2d\]	2r
.	.	2d\	1g
1G	.	1d	.
.	.	.	2g/
=6	=6	=6	=6
1G	0B	1d	1g
1G	.	1r	1d
=7	=7	=7	=7
!	!	!LO:TX:Z=5:t=Altus is missing after m. 6	!
1C	0c	0ryy	2r
.	.	.	2g/
2r	.	.	2e/
[2C/	.	.	2c/
=8	=8	=8	=8
2C/]	[0G	0ryy	2.g/
2C/	.	.	.
.	.	.	4f/
1C	.	.	4e/
.	.	.	4d/
.	.	.	[2e/
=9	=9	=9	=9
0GG	0G]	0ryy	2e/]
.	.	.	4d/
.	.	.	4c/
.	.	.	1B
=10	=10	=10	=10
1r	0A	0ryy	2r
.	.	.	2c/
1C	.	.	2.e/
.	.	.	4f/
=11	=11	=11	=11
0C	[0G	0ryy	2g/
.	.	.	4c/
.	.	.	4d/
.	.	.	4e/
.	.	.	4f/
.	.	.	4g/
.	.	.	4a/
=12	=12	=12	=12
0GG	0G]	0ryy	4b\
.	.	.	4g/
.	.	.	1cc
.	.	.	2b\
=13	=13	=13	=13
1r	0c	0ryy	2cc\
.	.	.	2c/
[1C	.	.	2.e/
.	.	.	4f/
=14	=14	=14	=14
1C]	1c	0ryy	2g/
.	.	.	4c/
.	.	.	4d/
1C	1c	.	4e/
.	.	.	4f/
.	.	.	4g/
.	.	.	4a/
=15	=15	=15	=15
1GG	1d	0ryy	4b\
.	.	.	4g/
.	.	.	1cc
2r	1d	.	.
2G\	.	.	2b\
=16	=16	=16	=16
2E\	[0c	0ryy	1cc
2C/	.	.	.
2.F\	.	.	2r
.	.	.	2cc\
4E\	.	.	.
=17	=17	=17	=17
1C	0c_	0ryy	2cc\
.	.	.	2cc\
1F	.	.	2cc\
.	.	.	2a/
=18	=18	=18	=18
2E\	0c_	0ryy	1g
2C/	.	.	.
2.F\	.	.	2r
.	.	.	[2cc\
4E\	.	.	.
=19	=19	=19	=19
0C	0c]	0ryy	2cc\]
.	.	.	2cc\
.	.	.	1cc
=20	=20	=20	=20
1C	[0e	0ryy	1g
2r	.	.	2r
[2C/	.	.	[2cc\
=21	=21	=21	=21
2C/]	0e]	0ryy	2cc\]
2C/	.	.	2cc\
1C	.	.	1cc
=22	=22	=22	=22
1GG	0d	0ryy	2b\
.	.	.	2g/
2r	.	.	2a/
2D\	.	.	2f/
=23	=23	=23	=23
2E\	1c	0ryy	2.g/
2F\	.	.	.
.	.	.	8f/L
.	.	.	8e/J
1G	1B	.	1d
=24	=24	=24	=24
1C	0A	0ryy	1c
2r	.	.	1r
2D\	.	.	.
=25	=25	=25	=25
2E\	[0G	0ryy	1r
2F\	.	.	.
1G	.	.	2r
.	.	.	2d/
=26	=26	=26	=26
1C	0G]	0ryy	2e/
.	.	.	2f/
2r	.	.	[1g
2G\	.	.	.
=27	=27	=27	=27
2E\	0B	0ryy	2g/]
2F\	.	.	4f/
.	.	.	4e/
1G	.	.	1d
=28	=28	=28	=28
0C	1c	0ryy	1c
.	1c	.	1r
=29	=29	=29	=29
1r	1c	0ryy	2r
.	.	.	2cc\
2r	1c	.	2cc\
2C/	.	.	2cc\
=30	=30	=30	=30
2C/	0c	0ryy	1cc
2C/	.	.	.
1C	.	.	1g
=31	=31	=31	=31
0GG	0d	0ryy	1r
.	.	.	2r
.	.	.	2dd\
=32	=32	=32	=32
1r	[0d	0ryy	2dd\
.	.	.	2dd\
2r	.	.	1dd
2D\	.	.	.
=33	=33	=33	=33
2D\	1d]	0ryy	0a
2D\	.	.	.
1D	1d	.	.
=34	=34	=34	=34
2AA/	0e	0ryy	0r
2AA/	.	.	.
2.C/	.	.	.
4BB/	.	.	.
=35	=35	=35	=35
2GG/	1d	0ryy	0r
2BB/	.	.	.
1AA	1c	.	.
=36	=36	=36	=36
1GG	0B	0ryy	2r
.	.	.	2dd\
2r	.	.	2dd\
2D\	.	.	2dd\
=37	=37	=37	=37
2D\	0A	0ryy	1dd
2D\	.	.	.
1D	.	.	1a
=38	=38	=38	=38
0AA	2.c\	0ryy	2r
.	.	.	2a/
.	4d\	.	.
.	[1e	.	2.cc\
.	.	.	4b\
=39	=39	=39	=39
0r	1e]	0ryy	2g/
.	.	.	2.a/
.	1d	.	.
.	.	.	4g/
.	.	.	[2g/
=40	=40	=40	=40
0r	1c	0ryy	2g/]
.	.	.	2f#i/
.	2.B\	.	1g
.	4A/	.	.
=41	=41	=41	=41
2r	1G	0ryy	2r
1G	.	.	1g
.	1G	.	.
2C/	.	.	2g/
=42	=42	=42	=42
2E\	2G/	0ryy	2g/
2F\	1A	.	2c/
1D	.	.	1f
.	2B\	.	.
=43	=43	=43	=43
1C	1c	0ryy	1e
2r	[1c	.	2r
[2F\	.	.	[2f/
=44	=44	=44	=44
2F\]	1c]	0ryy	2f/]
2F\	.	.	2f/
1F	1c	.	1f
=45	=45	=45	=45
1C	[0c	0ryy	1e
2r	.	.	2r
[2F\	.	.	[2f/
=46	=46	=46	=46
2F\]	0c]	0ryy	2f/]
2F\	.	.	2f/
1F	.	.	1f
=47	=47	=47	=47
0Cl;	0cl;	0ryy	0el;
!!LO:LB:i:g=z
=48||	=48||	=48||	=48||
*>B	*>B	*>B	*>B
*clefF4	*clefGv2	*clefGv2	*clefG2
*k[]	*k[]	*k[]	*k[]
*M2/1	*M2/1	*M2/1	*M2/1
*met(C|)	*met(C|)	*met(C|)	*met(C|)
!!!OMD: Secunda pars: Quoniam confirmata est
!!section: Secunda pars: Quoniam confirmata est
1G	[0B	0ryy	2r
.	.	.	2g/
1G	.	.	2g/
.	.	.	2g/
=49	=49	=49	=49
1G	1B]	0ryy	2d/
.	.	.	2g/
2D\	1B	.	2f/
2G\	.	.	2e/
=50	=50	=50	=50
2E\	0B	0ryy	2.g/
2D\	.	.	.
.	.	.	8f/L
.	.	.	8e/J
1G	.	.	2d/
.	.	.	2g/
=51	=51	=51	=51
1C	[0c	0ryy	1e
2r	.	.	2a/
2F\	.	.	2a/
=52	=52	=52	=52
2E\	1c]	0ryy	1g
2C/	.	.	.
2F\	1d	.	2r
2F\	.	.	2a/
=53	=53	=53	=53
1E	[0e	0ryy	1g
2r	.	.	2cc\
2A\	.	.	2cc\
=54	=54	=54	=54
2G\	1e]	0ryy	1b
2E\	.	.	.
2A\	1f	.	2r
2A\	.	.	2cc\
=55	=55	=55	=55
1G	1g	0ryy	1b
2r	[1g	.	2ee\
2C/	.	.	2ee\
=56	=56	=56	=56
2G\	1g]	0ryy	2dd\
2C/	.	.	2ee\
2G\	1g	.	2dd\
2C/	.	.	[2ee\
=57	=57	=57	=57
2r	0c	0ryy	4ee\]
.	.	.	4dd\
2C/	.	.	4cc\
.	.	.	4b\
2F\	.	.	1cc
2C/	.	.	.
=58	=58	=58	=58
1G	0d	0ryy	0b
2GG/	.	.	.
[2G\	.	.	.
=59	=59	=59	=59
2G\]	0B	0ryy	1r
2E\	.	.	.
1D	.	.	1dd
=60	=60	=60	=60
1C	1c	0ryy	2.ee\
.	.	.	4dd\
2r	1c	.	4cc\
.	.	.	4b\
2F\	.	.	[2cc\
=61	=61	=61	=61
2F\	1.c	0ryy	4cc\]
.	.	.	4b\
2F\	.	.	4a/
.	.	.	4g/
2.F\	.	.	2a/
.	2c\	.	2a/
4C/	.	.	.
=62	=62	=62	=62
1C	[0e	0ryy	0g
2r	.	.	.
2C/	.	.	.
=63	=63	=63	=63
2C/	1e]	0ryy	2r
2C/	.	.	2g/
2.C/	1e	.	4g/
.	.	.	4f/
.	.	.	4g/
4GG/	.	.	4a/
=64	=64	=64	=64
1GG	0d	0ryy	4b\
.	.	.	4a/
.	.	.	4b\
.	.	.	4cc\
2r	.	.	4dd\
.	.	.	4ee\
2GG/	.	.	[2dd\
=65	=65	=65	=65
2.BB/	0d	0ryy	4dd\]
.	.	.	4cc\
.	.	.	1cc
4C/	.	.	.
1GG	.	.	.
.	.	.	2b\
=66	=66	=66	=66
[0C	[0c	0ryy	2cc\
.	.	.	2c/
.	.	.	4e/
.	.	.	4d/
.	.	.	4e/
.	.	.	4f/
=67	=67	=67	=67
1C]	0c_	0ryy	2g/
.	.	.	4c/
.	.	.	4d/
2r	.	.	4e/
.	.	.	4f/
2C/	.	.	[2g/
=68	=68	=68	=68
2E\	0c]	0ryy	4g/]
.	.	.	4f/
2F\	.	.	1f
1C	.	.	.
.	.	.	2e/
=69	=69	=69	=69
1F	0c	0ryy	1f
2r	.	.	2r
[2E\	.	.	[2a/
=70	=70	=70	=70
2E\]	[0c	0ryy	2a/]
1F	.	.	1a
2F\	.	.	2a/
=71	=71	=71	=71
0C	0c]	0ryy	2g/
.	.	.	2cc\
.	.	.	2.cc\
.	.	.	8b/L
.	.	.	8a/J
=72	=72	=72	=72
2r	0G	0ryy	1b
1G	.	.	.
.	.	.	2r
[2G\	.	.	[2dd\
=73	=73	=73	=73
2G\]	2.B\	0ryy	2dd\]
2G\	.	.	1dd
.	4c\	.	.
2D\	2.d\	.	.
2G\	.	.	2dd\
.	4e\	.	.
=74	=74	=74	=74
2F\	1f	0ryy	1a
2D\	.	.	.
2.F\	1f	.	2r
.	.	.	2a/
4E\	.	.	.
=75	=75	=75	=75
1C	2g\	0ryy	2g/
.	2g\	.	2cc\
2r	2g\	.	2b\
2C/	2g\	.	[2ee\
=76	=76	=76	=76
2C/	1c	0ryy	2ee\]
2C/	.	.	4dd\
.	.	.	4cc\
2GG/	2.d\	.	1b
2G\	.	.	.
.	4e\	.	.
=77	=77	=77	=77
2F\	1f	0ryy	1a
2D\	.	.	.
2.F\	1f	.	2r
.	.	.	[2cc\
4E\	.	.	.
=78	=78	=78	=78
[0C	[0e	0ryy	2cc\]
.	.	.	1cc
.	.	.	2cc\
=79	=79	=79	=79
0C]	1e]	0ryy	1g
.	1g	.	2r
.	.	.	2cc\
=80	=80	=80	=80
2r	1.f	0ryy	2.a/
1F	.	.	.
.	.	.	4b\
.	.	.	2cc\
2F\	2f\	.	[2a/
=81	=81	=81	=81
1F	0c	0ryy	2a/]
.	.	.	4g/
.	.	.	4f/
1C	.	.	2e/
.	.	.	2g/
=82	=82	=82	=82
2r	1d	0ryy	2g/
2G\	.	.	2g/
2G\	1B	.	2d/
2G\	.	.	2r
=83	=83	=83	=83
2D\	0A	0ryy	2f/
2F\	.	.	2f/
2F\	.	.	2f/
2F\	.	.	2c/
=84	=84	=84	=84
1C	1G	0ryy	4c/
.	.	.	4B/
.	.	.	4c/
.	.	.	4d/
2r	1c	.	2.e/
2C/	.	.	.
.	.	.	4f/
=85	=85	=85	=85
2C/	1c	0ryy	2.g/
2C/	.	.	.
.	.	.	4a/
2GG/	1d	.	4b\
.	.	.	4cc\
2G\	.	.	4dd\
.	.	.	4b\
=86	=86	=86	=86
2E\	1e	0ryy	2.cc\
2C/	.	.	.
.	.	.	4b\
1F	1f	.	4a/
.	.	.	4g/
.	.	.	2a/
=87	=87	=87	=87
1C	0g	0ryy	2g/
.	.	.	2c/
2r	.	.	4c/
.	.	.	4B/
[2c\	.	.	4c/
.	.	.	4d/
=88	=88	=88	=88
2c\]	1c	0ryy	2.e/
2c\	.	.	.
.	.	.	4f/
1c	1e	.	2.g/
.	.	.	4a/
=89	=89	=89	=89
1G	0d	0ryy	4b\
.	.	.	4cc\
.	.	.	2.dd\
2r	.	.	.
.	.	.	4cc\
2G\	.	.	2b\
=90	=90	=90	=90
2E\	0c	0ryy	1cc
2C/	.	.	.
1F	.	.	2r
.	.	.	[2cc\
=91	=91	=91	=91
1C	[0c	0ryy	2cc\]
.	.	.	2cc\
2r	.	.	1cc
2F\	.	.	.
=92	=92	=92	=92
2E\	1c]	0ryy	2g/
2C/	.	.	2g/
1F	1c	.	2a/
.	.	.	2a/
=93	=93	=93	=93
1C	1c	0ryy	1g
2r	2G/	.	2r
[2C/	[2G/	.	[2e/
=94	=94	=94	=94
2C/]	2G/]	0ryy	2e/]
2C/	2G/	.	2e/
1C	1G	.	1e
=95	=95	=95	=95
0GGl;	0Gl;	0ryy	0dl;
==	==	==	==
*-	*-	*-	*-
!!!RDF**kern: l=long note in original notation
!!!RDF**kern: i=editorial accidental
!!!ENC:	Victoria Chang
!!!END:	2011/03/21/ [sic]
!!!ONB1: Score is in NJE Critical Commentary 15, pp 4-10. 
!!!ONB2: NJE only names four parts.  Only three are present in the edition.  
!!!EED:	Jesse Rodin
!!!EEV:	2013/10/25/
!!attribution-level@Jos: 4 (questionable)
!!!ONB:	Translated from MusicXML and edited on 2011/04/05/ by Craig Sapp
!!muse2ps: u^(2) @{OTL2}^C^@{COA}?\n@{SCT}^i2I150v90,90,90,150Q16
